X:416
T:St. Catherine's Pipe Band #1 
C:Joe Buchanan's Scottish Tome - Page 379.0
I:379 0
C:Capt. Hugh MacPherson
R:March
Z:Carl Allison
L:1/8
M:2/4
K:A
e | "A"AA/>B/ "Ea"cB/>A/ | "A"c/>A/c/>e/ "Da"fe/>f/ | "A"aA "Ea"f/>e/c/>A/ | "B7"cB "E7"Be |
"A"AA "Ea"cB/>A/ | "A"c/>A/c/<e/ "Ea"fe/>f/ | "F#m"aA "E7"f/>e/c/<B/ | "A"cA A :|
f/>g/ | "A"a/>g/f/<e/ "Ea"a>e | "D"fe/>c/ "Ea"fe/>f/ | "A"aA "Ea"f/>e/c/<A/ | "B7"cB "E7"Bg |
"A"a/>g/f/<e/ "Ea"a>e | "C#d"fe/>c/ "F#m"fe/>f/ | "F#m"aA "E7"f/>e/c/<B/ | "A"cA A :|
e | "A"AA/>B/ "Ea"c/>B/c/<A/ | "A"c/<e/A/>e/ "Ea"fe/>f/ | "A"aA "Ea"f/>e/c/<e/ | "B7"fe "E7"ef/<a/ |
"A"AA "Ea"c/>B/c/>A/ | "A"c/>e/A/>e/ "D"fe/>f/ | "F#m"aA "E7"f/>e/c/>B/ | "A"cA A :|
f/>g/ | "A"aa/>e/ "Ea"a/>g/f/<e/ | "D"fe/>c/ "E7"fe/>f/ | "A"aA "E7"f/>e/c/<e/ | "A"fe eg |
"A"aa/>e/ "Ea"a/>g/f/<e/ | "D"fe/>c/ "E7"fe/>f/ | "F#m"aA "E7"f/>e/c/<B/ | "A"cA Af/>g/ |
"A"aa/>e/ "Ea"a/>g/f/<e/ | "D"fe/>c/ "E7"fe/>f/ | "F#m"aA "E7"f/>e/c/<e/ | "A"fe ea |
"A"AA/>B/ "Ea"c/>B/c/<A/ | "A"c/<e/A/>e/ "D"fe/>f/ | "F#m"aA "E7"f/>e/c/<B/ | "A"cA A |]

